X:1
T: Clancy's Frolics
C:
R:Jig
Q:180
K:D
M:6/8
L:1/16
A2|d2f2f2 f2e2c2|d2B2B2 B2c2d2|c2A2A2 e2A2A2|c2A2A2 A2B2c2|d2c2d2 g2e2c2|d2B2B2 B2c2d2|d2f2a2 d2f2a2|g2e2c2 d4A2|
d2f2f2 f2e2c2|d2B2B2 B2c2d2|c2A2A2 e2A2A2|c2A2A2 A2B2c2|d2c2d2 g2e2c2|d2B2B2 B2c2d2|d2f2a2 d2f2a2|g2e2c2 d4A2|
d2c2d2 f2e2d2|fga2f2 g2e2c2|d2c2d2 f2e2d2|c2d2e2 e2c2A2|d2c2d2 f2e2d2|fga2f2 g2e2c2|d2f2a2 d2f2a2|g2e2c2 d4A2|
d2c2d2 f2e2d2|fga2f2 g2e2c2|d2c2d2 f2e2d2|c2d2e2 e2c2A2|d2c2d2 f2e2d2|fga2f2 g2e2c2|d2f2a2 d2f2a2|g2e2c2 d4||
